X:1
T:Astri mi Astri
T:Astri mi Astri
T:Norsk folkevise
T:arr. Kjerulf
C:arr. Kjerulf
%%score [ 1 2 3 4 ]
L:1/8
Q:1/4=64
M:6/8
K:G
V:1 treble-8 nm="T1" snm="T1"
V:2 treble-8 nm="T2" snm="T2"
V:3 bass nm="B1" snm="B1"
V:4 bass nm="B2" snm="B2"
V:1
"^Andantino" z6 | z6 | z6 | z6 | z6 | z6 | z6 | z6 |"^Ten I Mel."!mf! d b a g f e | %9
w: ||||||||Den Ti daa var eg den|
 d e f"^ten." g3 |!p! B c d!<(! e!>(! g3/2!<)! c/!>)! | B c A!<(! G2 z!<)! |!mf! d b a g f e | %13
w: gjæ- va- ste Gut,|in- kje eg byt- te me|Prest el- ler Fut,|den Ti daa var eg den|
!<(! d e!<)!"^rit." f!>(! g3!>)! |!p! B c d!<(! e!>(! g3/2!<)! c/!>)! | B c A G2 z |] %16
w: gjæ- va- ste Gut,|in- kje eg byt- te me|Prest el- ler Fut.|
V:2
"^dolce""^Ten II Mel."!p! B3/2 B/ B d c B | A A A !>!c2 B | G G G A B c | D E F G2 A | G2 G B A G | %5
w: A- stri mi A- stri, som|ei- ne helt taa meg,|den Ti eg var deg saa|in- der- lig go; den|Ti du gret ko hver|
 G F E (DE) F | G G G G G G | c c d!<(! B2 c!<)! |!mf! d2 c B A G | F G A"^ten." G3 | %10
w: Gaang eg gjik fraa * deg,|som du hver- ei- na- ste|Laur- dags- kvell saag; den|Ti daa var eg den|gjæ- va- ste Gut,|
!p! G A B!<(! c!>(! e3/2!<)! A/!>)! | G A A!<(!!<(! B2 c!<)!!<)! |!mf! d2 ^d e =d c | %13
w: in- kje eg byt- te me|Prest el- ler Fut, den|Ti daa var eg den|
!<(! c c!<)!"^rit." c!>(!!>(! B3!>)!!>)! |!p! G A B!<(! c!>(! c3/2!<)! A/!>)! | d d d B2 z |] %16
w: gjæ- va- ste Gut,|in- kje eg byt- te me|Prest el- ler Fut.|
V:3
 z6 | z6 | z6 | z6 |"^Bar. Mel." B,3/2 B,/ B, D C B, | A, A, A, C2 B, | G, G, G, A, B, C | %7
w: ||||Den Ti du gret ko hver|Gaang eg gjik fraa deg,|som du hver- ei- na- ste|
 D, E, F,!<(! G,2 A,!<)! |!mf! B,2 C D D D | D ^C =C"^ten." B,3 | %10
w: Laur- dags- kvell saag; den|Ti daa var eg den|gjæ- va- ste Gut,|
!p! G, G, G,!<(! G,!>(! G,3/2!<)! G,/!>)! | G, G, F,!<(! G,2 A,!<)! |!mf! B,2 B, B, B, G, | %13
w: in- kje eg byt- te me|Prest el- ler Fut, den|Ti daa var eg den|
!<(! F, G,!<)!"^rit." A,!>(! G,3!>)! |!p! G, G, G,!<(! G,!>(! G,3/2!<)! G,/!>)! | G, A, F, G,2 z |] %16
w: gjæ- va- ste Gut,|in- kje eg byt- te me|Prest el- ler Fut.|
V:4
"^dolce"!p! G,3/2 G,/ G, B, A, G, | G, F, E, !>!^D,2 D, | E, E, =D, C, B,, A,, | %3
w: A- stri mi A- stri, som|ei- ne helt taa meg,|den To eg var deg saa|
 D, ^C, =C, B,,2 D, | G,2 G, G,, G,, B,, | D, D, D, D,2 D, | E, E, E, _E, E, E, | %7
w: in- der- lig go; den|Ti du gret ko hver|Gaang eg gjik fraa deg,|som du hver- ei- na- ste|
 D, D, D,!<(! [G,,D,]2 G,!<)! |!mf! G,2 G, G, D, D, | D, D, D,"^ten." E,3 | %10
w: Laur- dags- kvell saag; den|Ti daa var eg den|gjæ- va- ste Gut,|
!p! G, F, =F,!<(! E,!>(! C,3/2!<)! C,/!>)! | D, D, D,!<(! G,,2 G,!<)! |!mf! G,2 F, E, B,, C, | %13
w: in- kje eg byt- te me|Prest el- ler Fut, den|Ti daa var eg den|
!<(! D, D,!<)!"^rit." D,!>(! E,3!>)! |!p! E, E, D,!<(! C,!>(! E,3/2!<)! _E,/!>)! | %15
w: gjæ- va- ste Gut,|in- kje eg byt- te me|
 D, D, D, [G,,D,]2 z |] %16
w: Prest el- ler Fut.|

